src/raw/facebook/icon_24.svg

<svg width="24" height="24" viewBox="0 0 24 24" fill="none" xmlns="http://www.w3.org/2000/svg">
<path fill-rule="evenodd" clip-rule="evenodd" d="M23 12.0672C23 5.95496 18.0751 1 12 1C5.92486 1 1 5.95496 1 12.0672C1 17.5912 5.02254 22.1697 10.2812 23V15.2663H7.48828V12.0672H10.2812V9.62898C10.2812 6.85525 11.9235 5.32313 14.4361 5.32313C15.6396 5.32313 16.8984 5.53929 16.8984 5.53929V8.26287H15.5114C14.1449 8.26287 13.7188 9.11597 13.7188 9.99119V12.0672H16.7695L16.2818 15.2663H13.7188V23C18.9775 22.1697 23 17.5912 23 12.0672Z" fill="#3F3F46"/>
</svg>

<svg xmlns="http://www.w3.org/2000/svg" width="24" height="24" fill="none" viewBox="0 0 24 24">
  <path fill="#3F3F46" fill-rule="evenodd"
    d="M23 12.067C23 5.955 18.075 1 12 1S1 5.955 1 12.067C1 17.591 5.023 22.17 10.281 23v-7.734H7.488v-3.199h2.793V9.63c0-2.774 1.643-4.306 4.155-4.306 1.204 0 2.462.216 2.462.216v2.724h-1.387c-1.366 0-1.792.853-1.792 1.728v2.076h3.05l-.487 3.2h-2.563V23C18.977 22.17 23 17.591 23 12.067Z"
    clip-rule="evenodd" />
</svg>
